X: 2
T: I'm The Boy For Bewitching Them
M: 9/8
L: 1/8
R: slip jig
K: G Major
|: F |\
G>AG G<ge dBG | A>BA A<Bd e2 g |
GAG gfe dB/A/G | A>Bc B^AB E2 :|
|: f |\
g>dg gag f2 d | e>fe ee/f/g a2 f |
[1 gdg gag fed | g>fe dd/c/B A2 :|
[2 bg/a/b afa gfe | d>ef g<dB A2 |]
